icons/Logos/windows-line.svg

<svg viewBox="0 0 24 24" xmlns="http://www.w3.org/2000/svg"><path d="M21.001 2.5V21.5L3.00098 19.5V4.5L21.001 2.5ZM19.001 12.999L12.001 13V18.487L19.001 19.2655V12.999ZM5.00098 17.7099L10.001 18.265V13L5.00098 12.999V17.7099ZM19.001 10.999V4.73453L12.001 5.512V11L19.001 10.999ZM10.001 5.734L5.00098 6.29009V10.999L10.001 11V5.734Z"/></svg>

<svg xmlns="http://www.w3.org/2000/svg" viewBox="0 0 24 24">
    <g>
        <path fill="none" d="M0 0H24V24H0z"/>
        <path d="M21 2.5v19l-18-2v-15l18-2zm-2 10.499L12 13v5.487l7 .778V13zm-14 4.71l5 .556V13l-5-.001v4.71zM19 11V4.735l-7 .777V11l7-.001zm-9-5.265L5 6.29V11L10 11V5.734z"/>
    </g>
</svg>
